src/assets/flags/jm.svg

<?xml version="1.0" encoding="UTF-8"?>
<svg xmlns="http://www.w3.org/2000/svg" xmlns:xlink="http://www.w3.org/1999/xlink" width="25px" height="px" viewBox="0 0 25 19" version="1.1">
<g id="surface1">
<path style=" stroke:none;fill-rule:evenodd;fill:rgb(0%,0%,0.392157%);fill-opacity:1;" d="M 0 0 L 12.5 9.5 L 0 19 Z M 25 0 L 12.5 9.5 L 25 19 Z M 25 0 "/>
<path style=" stroke:none;fill-rule:evenodd;fill:rgb(0%,60.000002%,0%);fill-opacity:1;" d="M 0 0 L 12.5 9.5 L 25 0 Z M 0 19 L 12.5 9.5 L 25 19 Z M 0 19 "/>
<path style=" stroke:none;fill-rule:evenodd;fill:rgb(100%,80.000001%,0%);fill-opacity:1;" d="M 25 0 L 22.671875 0 L 0 17.230469 L 0 19 L 2.328125 19 L 25 1.769531 Z M 25 0 "/>
<path style=" stroke:none;fill-rule:evenodd;fill:rgb(100%,80.000001%,0%);fill-opacity:1;" d="M 0 0 L 0 1.769531 L 22.671875 19 L 25 19 L 25 17.230469 L 2.328125 0 Z M 0 0 "/>
</g>
</svg>

<svg xmlns="http://www.w3.org/2000/svg" width="25" height="px" viewBox="0 0 25 19"><path d="m0 0 12.5 9.5L0 19Zm25 0L12.5 9.5 25 19Zm0 0" style="stroke:none;fill-rule:evenodd;fill:#000001;fill-opacity:1"/><path d="m0 0 12.5 9.5L25 0Zm0 19 12.5-9.5L25 19Zm0 0" style="stroke:none;fill-rule:evenodd;fill:#090;fill-opacity:1"/><path d="M25 0h-2.328L0 17.23V19h2.328L25 1.77Zm0 0" style="stroke:none;fill-rule:evenodd;fill:#fc0;fill-opacity:1"/><path d="M0 0v1.77L22.672 19H25v-1.77L2.328 0Zm0 0" style="stroke:none;fill-rule:evenodd;fill:#fc0;fill-opacity:1"/></svg>
